;START_OF_HEADER
;HEADER_VERSION:0.1
;FLAVOR:Griffin
;GENERATOR.NAME:Cura_SteamEngine
;GENERATOR.VERSION:4.5.0
;GENERATOR.BUILD_DATE:2020-02-25
;TARGET_MACHINE.NAME:Ultimaker S5
;EXTRUDER_TRAIN.0.INITIAL_TEMPERATURE:200
;EXTRUDER_TRAIN.0.MATERIAL.VOLUME_USED:7281
;EXTRUDER_TRAIN.0.MATERIAL.GUID:506c9f0d-e3aa-4bd4-b2d2-23e2425b1aa9
;EXTRUDER_TRAIN.0.NOZZLE.DIAMETER:0.4
;EXTRUDER_TRAIN.0.NOZZLE.NAME:AA 0.4
;BUILD_PLATE.TYPE:glass
;BUILD_PLATE.INITIAL_TEMPERATURE:60
;BUILD_VOLUME.TEMPERATURE:28
;PRINT.TIME:7753
;PRINT.GROUPS:1
;PRINT.SIZE.MIN.X:140.425
;PRINT.SIZE.MIN.Y:86.225
;PRINT.SIZE.MIN.Z:0.2
;PRINT.SIZE.MAX.X:189.575
;PRINT.SIZE.MAX.Y:160.594
;PRINT.SIZE.MAX.Z:9.8
;END_OF_HEADER
;Generated with Cura_SteamEngine 4.5.0
T0
M82 ;absolute extrusion mode

G92 E0
M109 S200
G280 S1
G0 Z20.001
G1 F1500 E-6.5
;LAYER_COUNT:78
;LAYER:0
M107
M204 S625
M205 X10 Y10
G1 F600 Z2.2
G0 F2571.4 X180.026 Y151.68 Z2.2
M204 S500
M205 X5 Y5
;TYPE:SKIRT
G1 F600 Z0.2
G1 F1500 E0
G1 F1200 X179.442 Y152.576 E0.00704
G1 X177.753 Y154.776 E0.0253
G1 X177.269 Y155.341 E0.0302
G1 X176.476 Y156.053 E0.03722
G1 X174.277 Y157.741 E0.05547
G1 X173.663 Y158.162 E0.06037
G1 X172.711 Y158.646 E0.0674
G1 X170.154 Y159.706 E0.08562
G1 X169.452 Y159.953 E0.09052
G1 X168.404 Y160.175 E0.09758
G1 X165.654 Y160.537 E0.11584
G1 X164.912 Y160.594 E0.12074
G1 X163.846 Y160.537 E0.12777
G1 X161.096 Y160.175 E0.14603
G1 X160.364 Y160.038 E0.15093
G1 X159.345 Y159.705 E0.15799
G1 X156.789 Y158.645 E0.1762
G1 X156.118 Y158.324 E0.1811
G1 X155.225 Y157.742 E0.18812
G1 X153.025 Y156.054 E0.20638
G1 X152.46 Y155.57 E0.21127
G1 X151.747 Y154.776 E0.2183
G1 X150.058 Y152.576 E0.23656
G1 X149.637 Y151.962 E0.24146
G1 X149.152 Y151.006 E0.24852
G1 X148.094 Y148.45 E0.26673
G1 X147.847 Y147.748 E0.27163
G1 X147.627 Y146.707 E0.27864
G1 X147.264 Y143.957 E0.2969
G1 X147.206 Y143.215 E0.3018
G1 X147.264 Y142.143 E0.30887
G1 X147.627 Y139.393 E0.32713
G1 X147.763 Y138.661 E0.33203
G1 X148.094 Y137.65 E0.33903
G1 X149.152 Y135.094 E0.35725
G1 X149.473 Y134.422 E0.36215
G1 X150.058 Y133.524 E0.36921
G1 X151.747 Y131.324 E0.38747
G1 X152.231 Y130.759 E0.39236
G1 X153.025 Y130.046 E0.39939
G1 X155.225 Y128.358 E0.41765
G1 X155.839 Y127.937 E0.42255
G1 X156.789 Y127.455 E0.42956
G1 X159.345 Y126.395 E0.44778
G1 X160.047 Y126.147 E0.45268
G1 X161.096 Y125.925 E0.45974
G1 X163.846 Y125.563 E0.478
G1 X164.588 Y125.506 E0.4829
G1 X165.654 Y125.563 E0.48993
G1 X168.404 Y125.925 E0.50819
G1 X169.136 Y126.062 E0.51309
G1 X170.154 Y126.394 E0.52014
G1 X172.711 Y127.454 E0.53837
G1 X173.382 Y127.776 E0.54327
G1 X174.277 Y128.359 E0.5503
G1 X176.476 Y130.047 E0.56855
G1 X177.041 Y130.531 E0.57345
G1 X177.753 Y131.324 E0.58046
G1 X179.442 Y133.524 E0.59872
G1 X179.863 Y134.138 E0.60363
G1 X180.347 Y135.091 E0.61066
G1 X181.406 Y137.647 E0.62888
G1 X181.654 Y138.349 E0.63378
G1 X181.875 Y139.396 E0.64083
G1 X182.237 Y142.146 E0.65909
G1 X182.294 Y142.888 E0.66399
G1 X182.237 Y143.954 E0.67101
G1 X181.875 Y146.704 E0.68928
G1 X181.738 Y147.436 E0.69418
G1 X181.406 Y148.453 E0.70122
G1 X180.347 Y151.009 E0.71944
G1 X180.026 Y151.68 E0.72433
M204 S625
M205 X10 Y10
G0 F2571.4 X179.647 Y151.498
M204 S500
M205 X5 Y5
G1 F1200 X179.109 Y152.32 E0.7308
G1 X177.42 Y154.52 E0.74906
G1 X176.949 Y155.067 E0.75381
G1 X176.22 Y155.72 E0.76026
G1 X174.021 Y157.408 E0.77851
G1 X173.425 Y157.815 E0.78326
G1 X172.55 Y158.258 E0.78972
G1 X169.993 Y159.318 E0.80794
G1 X169.312 Y159.557 E0.81269
G1 X168.35 Y159.758 E0.81916
G1 X165.6 Y160.12 E0.83742
G1 X164.88 Y160.175 E0.84218
G1 X163.9 Y160.12 E0.84864
G1 X161.15 Y159.758 E0.8669
G1 X160.441 Y159.625 E0.87165
G1 X159.506 Y159.317 E0.87813
G1 X156.95 Y158.257 E0.89635
G1 X156.3 Y157.945 E0.9011
G1 X155.481 Y157.409 E0.90754
G1 X153.281 Y155.721 E0.9258
G1 X152.734 Y155.251 E0.93055
G1 X152.08 Y154.52 E0.937
G1 X150.391 Y152.32 E0.95526
G1 X149.984 Y151.725 E0.96001
G1 X149.54 Y150.846 E0.96649
G1 X148.482 Y148.29 E0.98471
G1 X148.243 Y147.609 E0.98946
G1 X148.043 Y146.652 E0.99589
G1 X147.68 Y143.902 E1.01416
G1 X147.625 Y143.183 E1.0189
G1 X147.68 Y142.198 E1.0254
G1 X148.043 Y139.448 E1.04366
G1 X148.177 Y138.739 E1.04841
G1 X148.482 Y137.81 E1.05485
G1 X149.54 Y135.254 E1.07306
G1 X149.852 Y134.604 E1.07781
G1 X150.391 Y133.78 E1.08429
G1 X152.08 Y131.58 E1.10255
G1 X152.551 Y131.033 E1.1073
G1 X153.281 Y130.379 E1.11376
G1 X155.481 Y128.691 E1.13201
G1 X156.077 Y128.284 E1.13676
G1 X156.95 Y127.843 E1.1432
G1 X159.506 Y126.783 E1.16142
G1 X160.187 Y126.544 E1.16617
G1 X161.15 Y126.342 E1.17265
G1 X163.9 Y125.98 E1.19091
G1 X164.62 Y125.925 E1.19567
G1 X165.6 Y125.98 E1.20213
G1 X168.35 Y126.342 E1.22039
G1 X169.059 Y126.475 E1.22514
G1 X169.993 Y126.782 E1.23161
G1 X172.55 Y127.842 E1.24984
G1 X173.2 Y128.155 E1.25459
G1 X174.021 Y128.692 E1.26104
G1 X176.22 Y130.38 E1.2793
G1 X176.767 Y130.85 E1.28404
G1 X177.42 Y131.58 E1.29049
G1 X179.109 Y133.78 E1.30875
G1 X179.516 Y134.375 E1.3135
G1 X179.959 Y135.252 E1.31997
G1 X181.018 Y137.808 E1.33818
G1 X181.257 Y138.489 E1.34293
G1 X181.458 Y139.45 E1.3494
G1 X181.82 Y142.2 E1.36766
G1 X181.875 Y142.92 E1.37241
G1 X181.82 Y143.9 E1.37888
G1 X181.458 Y146.65 E1.39714
G1 X181.325 Y147.359 E1.40189
G1 X181.018 Y148.292 E1.40835
G1 X179.959 Y150.848 E1.42657
G1 X179.647 Y151.498 E1.43131
M204 S625
M205 X10 Y10
G0 F2571.4 X179.268 Y151.315
M204 S500
M205 X5 Y5
G1 F1200 X178.776 Y152.065 E1.43722
G1 X177.087 Y154.265 E1.45548
G1 X176.631 Y154.793 E1.46007
G1 X175.964 Y155.387 E1.46595
G1 X173.765 Y157.075 E1.4842
G1 X173.188 Y157.467 E1.4888
G1 X172.389 Y157.87 E1.49469
G1 X169.832 Y158.93 E1.51291
G1 X169.173 Y159.16 E1.51751
G1 X168.295 Y159.342 E1.52341
G1 X165.545 Y159.704 E1.54167
G1 X164.849 Y159.755 E1.54627
G1 X163.955 Y159.704 E1.55216
G1 X161.205 Y159.342 E1.57042
G1 X160.52 Y159.211 E1.57502
G1 X159.667 Y158.929 E1.58093
G1 X157.111 Y157.869 E1.59915
G1 X156.483 Y157.566 E1.60374
G1 X155.737 Y157.076 E1.60961
G1 X153.537 Y155.388 E1.62787
G1 X153.009 Y154.932 E1.63246
G1 X152.413 Y154.265 E1.63835
G1 X150.724 Y152.065 E1.65661
G1 X150.332 Y151.488 E1.66121
G1 X149.928 Y150.685 E1.66712
G1 X148.87 Y148.129 E1.68534
G1 X148.641 Y147.47 E1.68993
G1 X148.459 Y146.597 E1.6958
G1 X148.096 Y143.847 E1.71406
G1 X148.045 Y143.151 E1.71866
G1 X148.096 Y142.253 E1.72458
G1 X148.459 Y139.503 E1.74284
G1 X148.59 Y138.818 E1.74743
G1 X148.87 Y137.971 E1.75331
G1 X149.928 Y135.415 E1.77152
G1 X150.231 Y134.787 E1.77611
G1 X150.724 Y134.035 E1.78203
G1 X152.413 Y131.835 E1.80029
G1 X152.869 Y131.307 E1.80488
G1 X153.537 Y130.712 E1.81077
G1 X155.737 Y129.024 E1.82903
G1 X156.314 Y128.632 E1.83362
G1 X157.111 Y128.231 E1.8395
G1 X159.667 Y127.171 E1.85771
G1 X160.326 Y126.941 E1.86231
G1 X161.205 Y126.758 E1.86822
G1 X163.955 Y126.396 E1.88648
G1 X164.651 Y126.345 E1.89108
G1 X165.545 Y126.396 E1.89697
G1 X168.295 Y126.758 E1.91523
G1 X168.98 Y126.889 E1.91982
G1 X169.832 Y127.17 E1.92573
G1 X172.389 Y128.23 E1.94395
G1 X173.017 Y128.534 E1.94855
G1 X173.765 Y129.025 E1.95444
G1 X175.964 Y130.713 E1.97269
G1 X176.492 Y131.169 E1.97728
G1 X177.087 Y131.835 E1.98316
G1 X178.776 Y134.035 E2.00142
G1 X179.168 Y134.612 E2.00602
G1 X179.571 Y135.413 E2.01192
G1 X180.63 Y137.969 E2.03013
G1 X180.86 Y138.628 E2.03473
G1 X181.042 Y139.505 E2.04063
G1 X181.404 Y142.255 E2.05889
G1 X181.455 Y142.951 E2.06348
G1 X181.404 Y143.845 E2.06938
G1 X181.042 Y146.595 E2.08764
G1 X180.911 Y147.28 E2.09223
G1 X180.63 Y148.131 E2.09813
G1 X179.571 Y150.687 E2.11635
G1 X179.268 Y151.315 E2.12094
M204 S625
M205 X10 Y10
G0 F2571.4 X178.889 Y151.132
M204 S500
M205 X5 Y5
G1 F1200 X178.442 Y151.809 E2.12628
G1 X176.753 Y154.009 E2.14454
G1 X176.313 Y154.518 E2.14897
G1 X175.709 Y155.054 E2.15428
G1 X173.51 Y156.742 E2.17253
G1 X172.952 Y157.119 E2.17697
G1 X172.228 Y157.482 E2.1823
G1 X169.671 Y158.542 E2.20052
G1 X169.035 Y158.762 E2.20495
G1 X168.24 Y158.926 E2.2103
G1 X165.49 Y159.288 E2.22856
G1 X164.819 Y159.336 E2.23299
G1 X164.01 Y159.288 E2.23833
G1 X161.26 Y158.926 E2.25659
G1 X160.599 Y158.798 E2.26102
G1 X159.828 Y158.541 E2.26637
G1 X157.272 Y157.481 E2.28459
G1 X156.667 Y157.187 E2.28902
G1 X155.992 Y156.742 E2.29434
G1 X153.792 Y155.054 E2.3126
G1 X153.284 Y154.614 E2.31702
G1 X152.747 Y154.009 E2.32235
G1 X151.058 Y151.809 E2.34061
G1 X150.68 Y151.251 E2.34504
G1 X150.316 Y150.525 E2.35039
G1 X149.258 Y147.969 E2.3686
G1 X149.038 Y147.332 E2.37304
G1 X148.876 Y146.542 E2.37835
G1 X148.513 Y143.792 E2.39661
G1 X148.464 Y143.121 E2.40104
G1 X148.513 Y142.308 E2.4064
G1 X148.876 Y139.558 E2.42466
G1 X149.003 Y138.897 E2.4291
G1 X149.258 Y138.131 E2.43441
G1 X150.316 Y135.575 E2.45262
G1 X150.61 Y134.97 E2.45705
G1 X151.058 Y134.291 E2.46241
G1 X152.747 Y132.091 E2.48067
G1 X153.187 Y131.582 E2.4851
G1 X153.792 Y131.046 E2.49042
G1 X155.992 Y129.358 E2.50868
G1 X156.55 Y128.98 E2.51311
G1 X157.272 Y128.619 E2.51843
G1 X159.828 Y127.559 E2.53665
G1 X160.464 Y127.338 E2.54108
G1 X161.26 Y127.174 E2.54643
G1 X164.01 Y126.812 E2.56469
G1 X164.681 Y126.764 E2.56912
G1 X168.24 Y127.174 E2.59271
G1 X168.901 Y127.302 E2.59714
G1 X169.671 Y127.558 E2.60248
G1 X172.228 Y128.618 E2.6207
G1 X172.834 Y128.912 E2.62514
G1 X173.51 Y129.358 E2.63047
G1 X175.709 Y131.046 E2.64872
G1 X176.217 Y131.487 E2.65315
G1 X176.753 Y132.091 E2.65847
G1 X178.442 Y134.291 E2.67673
G1 X178.82 Y134.849 E2.68117
G1 X179.183 Y135.574 E2.6865
G1 X180.242 Y138.13 E2.70472
G1 X180.463 Y138.766 E2.70915
G1 X180.626 Y139.56 E2.71449
G1 X180.988 Y142.31 E2.73275
G1 X181.036 Y142.981 E2.73718
G1 X180.988 Y143.79 E2.74251
G1 X180.626 Y146.54 E2.76077
G1 X180.498 Y147.201 E2.76521
G1 X180.242 Y147.97 E2.77054
G1 X179.183 Y150.526 E2.78876
G1 X178.889 Y151.132 E2.79319
M204 S625
M205 X10 Y10
G0 F2571.4 X178.511 Y150.948
M204 S500
M205 X5 Y5
G1 F1200 X178.109 Y151.553 E2.79798
G1 X176.42 Y153.753 E2.81624
G1 X175.995 Y154.242 E2.8205
G1 X175.453 Y154.721 E2.82526
G1 X173.254 Y156.409 E2.84351
G1 X172.717 Y156.77 E2.84777
G1 X172.067 Y157.094 E2.85256
G1 X169.51 Y158.154 E2.87078
G1 X168.898 Y158.364 E2.87504
G1 X168.185 Y158.509 E2.87983
G1 X165.435 Y158.871 E2.89809
G1 X164.789 Y158.916 E2.90235
G1 X164.065 Y158.871 E2.90713
G1 X161.315 Y158.509 E2.92539
G1 X160.679 Y158.385 E2.92966
G1 X159.989 Y158.154 E2.93445
G1 X157.433 Y157.094 E2.95267
G1 X156.851 Y156.809 E2.95693
G1 X156.248 Y156.409 E2.9617
G1 X154.048 Y154.721 E2.97995
G1 X153.56 Y154.296 E2.98421
G1 X153.08 Y153.753 E2.98898
G1 X151.391 Y151.553 E3.00725
G1 X151.029 Y151.016 E3.01151
G1 X150.704 Y150.364 E3.01631
G1 X149.646 Y147.808 E3.03452
G1 X149.436 Y147.195 E3.03878
G1 X149.292 Y146.487 E3.04354
G1 X148.929 Y143.737 E3.0618
G1 X148.884 Y143.091 E3.06607
G1 X148.929 Y142.363 E3.07087
G1 X149.292 Y139.613 E3.08913
G1 X149.416 Y138.977 E3.0934
G1 X149.646 Y138.292 E3.09815
G1 X150.704 Y135.736 E3.11637
G1 X150.988 Y135.154 E3.12063
G1 X151.391 Y134.547 E3.12543
G1 X153.08 Y132.347 E3.14369
G1 X153.505 Y131.858 E3.14795
G1 X154.048 Y131.379 E3.15272
G1 X156.248 Y129.691 E3.17098
G1 X156.785 Y129.329 E3.17524
G1 X157.433 Y129.006 E3.18001
G1 X159.989 Y127.946 E3.19822
G1 X160.601 Y127.736 E3.20248
G1 X161.315 Y127.591 E3.20728
G1 X164.065 Y127.229 E3.22554
G1 X164.711 Y127.184 E3.22981
G1 X168.185 Y127.591 E3.25283
G1 X168.821 Y127.715 E3.2571
G1 X169.51 Y127.946 E3.26188
G1 X172.067 Y129.006 E3.28011
G1 X172.649 Y129.291 E3.28437
G1 X173.254 Y129.691 E3.28915
G1 X175.453 Y131.379 E3.3074
G1 X175.941 Y131.805 E3.31167
G1 X176.42 Y132.347 E3.31643
G1 X178.109 Y134.547 E3.33469
G1 X178.471 Y135.084 E3.33895
G1 X178.795 Y135.734 E3.34373
G1 X179.854 Y138.29 E3.36195
G1 X180.065 Y138.903 E3.36622
G1 X180.209 Y139.615 E3.371
G1 X180.571 Y142.365 E3.38926
G1 X180.616 Y143.011 E3.39352
G1 X180.571 Y143.735 E3.3983
G1 X180.209 Y146.485 E3.41656
G1 X180.085 Y147.121 E3.42083
G1 X179.854 Y147.81 E3.42561
G1 X178.795 Y150.366 E3.44383
G1 X178.511 Y150.948 E3.44809
M204 S625
M205 X10 Y10
G0 F2571.4 X178.133 Y150.762
M204 S500
M205 X5 Y5
G1 F1200 X177.776 Y151.297 E3.45232
G1 X176.087 Y153.497 E3.47058
G1 X175.678 Y153.965 E3.47468
G1 X175.197 Y154.387 E3.47889
G1 X172.998 Y156.075 E3.49714
G1 X172.482 Y156.421 E3.50123
G1 X171.907 Y156.706 E3.50546
G1 X169.35 Y157.766 E3.52368
G1 X168.762 Y157.966 E3.52777
G1 X168.13 Y158.093 E3.53201
G1 X165.38 Y158.455 E3.55027
G1 X164.76 Y158.496 E3.55436
G1 X164.12 Y158.455 E3.55859
G1 X161.37 Y158.093 E3.57685
G1 X160.76 Y157.972 E3.58094
G1 X160.15 Y157.766 E3.58518
G1 X157.594 Y156.706 E3.6034
G1 X157.036 Y156.431 E3.60749
G1 X156.504 Y156.076 E3.61171
G1 X154.304 Y154.388 E3.62996
G1 X153.836 Y153.979 E3.63405
G1 X153.413 Y153.497 E3.63828
G1 X151.724 Y151.297 E3.65654
G1 X151.378 Y150.781 E3.66063
G1 X151.092 Y150.203 E3.66487
G1 X150.034 Y147.647 E3.68308
G1 X149.834 Y147.059 E3.68717
G1 X149.709 Y146.432 E3.69138
G1 X149.346 Y143.682 E3.70965
G1 X149.304 Y143.062 E3.71374
G1 X149.346 Y142.418 E3.71799
G1 X149.709 Y139.668 E3.73625
G1 X149.829 Y139.058 E3.74034
G1 X150.034 Y138.453 E3.74455
G1 X151.092 Y135.897 E3.76276
G1 X151.366 Y135.339 E3.76685
G1 X151.724 Y134.803 E3.7711
G1 X153.413 Y132.603 E3.78936
G1 X153.822 Y132.135 E3.79345
G1 X154.304 Y131.712 E3.79767
G1 X156.504 Y130.024 E3.81593
G1 X157.02 Y129.678 E3.82002
G1 X157.594 Y129.394 E3.82423
G1 X160.15 Y128.334 E3.84245
G1 X160.738 Y128.134 E3.84654
G1 X161.37 Y128.007 E3.85078
G1 X164.12 Y127.645 E3.86904
G1 X164.74 Y127.604 E3.87314
G1 X168.13 Y128.007 E3.89561
G1 X168.74 Y128.128 E3.89971
G1 X169.35 Y128.334 E3.90394
G1 X171.907 Y129.394 E3.92217
G1 X172.464 Y129.669 E3.92626
G1 X172.998 Y130.025 E3.93048
G1 X175.197 Y131.713 E3.94873
G1 X175.665 Y132.122 E3.95283
G1 X176.087 Y132.603 E3.95704
G1 X177.776 Y134.803 E3.9753
G1 X178.122 Y135.319 E3.97939
G1 X178.407 Y135.895 E3.98362
G1 X179.466 Y138.451 E4.00184
G1 X179.667 Y139.039 E4.00593
G1 X179.793 Y139.67 E4.01016
G1 X180.155 Y142.42 E4.02842
G1 X180.196 Y143.04 E4.03252
G1 X180.155 Y143.68 E4.03674
G1 X179.793 Y146.43 E4.055
G1 X179.672 Y147.04 E4.05909
G1 X179.466 Y147.649 E4.06333
G1 X178.407 Y150.205 E4.08154
G1 X178.133 Y150.762 E4.08563
M204 S625
M205 X10 Y10
G0 F2571.4 X177.756 Y150.576
M204 S500
M205 X5 Y5
G1 F1200 X177.443 Y151.042 E4.08932
G1 X175.754 Y153.242 E4.10758
G1 X175.362 Y153.687 E4.11149
G1 X174.941 Y154.054 E4.11517
G1 X172.742 Y155.742 E4.13342
G1 X172.248 Y156.071 E4.13732
G1 X171.746 Y156.318 E4.14101
G1 X169.189 Y157.378 E4.15923
G1 X168.626 Y157.568 E4.16314
G1 X168.076 Y157.676 E4.16683
G1 X165.326 Y158.038 E4.18509
G1 X164.733 Y158.076 E4.18901
G1 X164.174 Y158.038 E4.1927
G1 X161.424 Y157.676 E4.21096
G1 X160.842 Y157.559 E4.21487
G1 X160.311 Y157.378 E4.21856
G1 X157.755 Y156.318 E4.23678
G1 X157.223 Y156.054 E4.24069
G1 X156.759 Y155.743 E4.24436
G1 X154.559 Y154.055 E4.26262
G1 X154.114 Y153.663 E4.26652
G1 X153.746 Y153.242 E4.27021
G1 X152.057 Y151.042 E4.28847
G1 X151.728 Y150.547 E4.29238
G1 X151.48 Y150.043 E4.29608
G1 X150.422 Y147.487 E4.31429
G1 X150.233 Y146.924 E4.3182
G1 X150.125 Y146.377 E4.32187
G1 X149.762 Y143.627 E4.34013
G1 X149.724 Y143.035 E4.34404
G1 X149.762 Y142.473 E4.34775
G1 X150.125 Y139.723 E4.36601
G1 X150.242 Y139.141 E4.36992
G1 X150.422 Y138.613 E4.37359
G1 X151.48 Y136.057 E4.3918
G1 X151.744 Y135.525 E4.39571
G1 X152.057 Y135.058 E4.39941
G1 X153.746 Y132.858 E4.41767
G1 X154.138 Y132.413 E4.42158
G1 X154.559 Y132.045 E4.42526
G1 X156.759 Y130.357 E4.44352
G1 X157.254 Y130.028 E4.44743
G1 X157.755 Y129.782 E4.4511
G1 X160.311 Y128.722 E4.46932
G1 X160.873 Y128.532 E4.47323
G1 X161.424 Y128.424 E4.47692
G1 X164.174 Y128.062 E4.49519
G1 X164.767 Y128.024 E4.4991
G1 X168.076 Y128.424 E4.52104
G1 X168.658 Y128.541 E4.52495
G1 X169.189 Y128.722 E4.52864
G1 X171.746 Y129.782 E4.54687
G1 X172.278 Y130.046 E4.55078
G1 X172.742 Y130.358 E4.55446
G1 X174.941 Y132.046 E4.57271
G1 X175.387 Y132.438 E4.57662
G1 X175.754 Y132.858 E4.58029
G1 X177.443 Y135.058 E4.59855
G1 X177.772 Y135.553 E4.60246
G1 X178.019 Y136.056 E4.60615
G1 X179.078 Y138.612 E4.62437
G1 X179.268 Y139.174 E4.62828
